svg/account-delete.svg

<svg xmlns="http://www.w3.org/2000/svg" width="24" height="24" viewBox="0 0 24 24">
	<g fill="none" stroke="currentColor" stroke-width="2" stroke-linecap="round">
		<path d="M3 21V20C3 17.7909 4.79086 16 7 16H11C13.2091 16 15 17.7909 15 20V21" stroke-dasharray="20" stroke-dashoffset="20">
			<animate attributeName="stroke-dashoffset" values="20;0" dur="0.4s" fill="freeze" />
		</path>
		<path d="M9 13C7.34315 13 6 11.6569 6 10C6 8.34315 7.34315 7 9 7C10.6569 7 12 8.34315 12 10C12 11.6569 10.6569 13 9 13Z" stroke-dasharray="20" stroke-dashoffset="20">
			<animate attributeName="stroke-dashoffset" values="20;0" begin="0.5s" dur="0.4s" fill="freeze" />
		</path>
		<path d="M15 3L21 9" stroke-dasharray="10" stroke-dashoffset="10">
			<animate attributeName="stroke-dashoffset" values="10;0" begin="1s" dur="0.2s" fill="freeze" />
		</path>
		<path d="M21 3L15 9" stroke-dasharray="10" stroke-dashoffset="10">
			<animate attributeName="stroke-dashoffset" values="10;0" begin="1.2s" dur="0.2s" fill="freeze" />
		</path>
	</g>
</svg>

<svg xmlns="http://www.w3.org/2000/svg" width="24" height="24" viewBox="0 0 24 24">
	<g fill="none" stroke="currentColor" stroke-width="2" stroke-linecap="round" stroke-linejoin="round">
		<path d="M3 21v-1c0 -2.21 1.79 -4 4 -4h4c2.21 0 4 1.79 4 4v1" stroke-dasharray="20" stroke-dashoffset="20">
			<animate attributeName="stroke-dashoffset" values="20;0" dur="0.2s" fill="freeze" />
		</path>
		<path d="M9 13c-1.66 0 -3 -1.34 -3 -3c0 -1.66 1.34 -3 3 -3c1.66 0 3 1.34 3 3c0 1.66 -1.34 3 -3 3Z" stroke-dasharray="20" stroke-dashoffset="20">
			<animate attributeName="stroke-dashoffset" values="20;0" begin="0.2s" dur="0.2s" fill="freeze" />
		</path>
		<path d="M15 3l6 6" stroke-dasharray="12" stroke-dashoffset="12">
			<animate attributeName="stroke-dashoffset" values="12;0" begin="0.5s" dur="0.2s" fill="freeze" />
		</path>
		<path d="M21 3l-6 6" stroke-dasharray="12" stroke-dashoffset="12">
			<animate attributeName="stroke-dashoffset" values="12;0" begin="0.7s" dur="0.2s" fill="freeze" />
		</path>
	</g>
</svg>
